; HEADER_BLOCK_START
; generated by ElegooSlicer 1.3.0.11 on 2026-04-30 at 09:03:45
; total layer number: 28
; filament_density: 1.25
; filament_diameter: 1.75
; max_z_height: 7.76
; HEADER_BLOCK_END



; THUMBNAIL_BLOCK_START

;
; THUMBNAIL_BLOCK_END

; external perimeters extrusion width = 0.42mm
; perimeters extrusion width = 0.45mm
; infill extrusion width = 0.45mm
; solid infill extrusion width = 0.42mm
; top infill extrusion width = 0.42mm
; first layer extrusion width = 0.50mm

; EXECUTABLE_BLOCK_START
EXCLUDE_OBJECT_DEFINE NAME=Cube_id_0_copy_0 CENTER=128,128 POLYGON=[[124.066,124.066],[131.934,124.066],[131.934,131.934],[124.066,131.934],[124.066,124.066]]
M73 P0 R2
M106 S0
M106 P2 S0
;TYPE:Custom
;;===== date: 20251011 =====================
;printer_model:Elegoo Centauri Carbon
;initial_filament:PLA
;curr_bed_type:Textured PEI Plate
;bed_level_temp:60
M400 ; wait for buffer to clear
M220 S100 ;Set the feed speed to 100%
M221 S100 ;Set the flow rate to 100%
M104 S140
M140 S60
G90
G28 ;home
M729 ;Clean Nozzle
M190 S60


;=============turn on fans to prevent PLA jamming=================

    
    M106 P3 S255
    ;Prevent PLA from jamming


;enable_pressure_advance:false
;This value is called if pressure advance is enabled

M204 S5000 ;Call exterior wall print acceleration


G1 X128 Y-1.2 F20000
G1 Z0.3 F900
M109 S225
M83
G92 E0 ;Reset Extruder
G1 F6000 
G1 X-1.2 E10.156 ;Draw the first line
G1 Y98.8 E7.934
M73 P1 R2
G1 X-0.5 Y100 E0.1
M73 P2 R2
G1 Y-0.3 E7.934
G1 X78 E6.284
G1 F1680 
M73 P3 R2
G1 X98 E2
G1 F8400 
G1 X118 E2
G1 F1680 
G1 X138 E2
G1 F8400 
M73 P4 R2
G1 X158 E2
G1 F8400 
G1 X178 E2
;End PA test.


G3 I-1 J0 Z0.6 F1200.0 ;Move to side a little
G1 F20000
G92 E0 ;Reset Extruder
;LAYER_COUNT:28
;LAYER:0
M106 P3 S255
G90
G21
M83 ; use relative distances for extrusion
; filament start gcode
M106 P3 S200


M106 P2 S0
;LAYER_CHANGE
;Z:0.2
;HEIGHT:0.2
;BEFORE_LAYER_CHANGE
;0.2
G92 E0

G1 E-.8 F1800
;LAYER:1

;_SET_FAN_SPEED_CHANGING_LAYER
SET_VELOCITY_LIMIT ACCEL=500
EXCLUDE_OBJECT_START NAME=Cube_id_0_copy_0
G1 X131.127 Y131.127 F30000
G1 Z.6
M73 P5 R2
G1 Z.2
G1 E.8 F1800
;TYPE:Inner wall
;WIDTH:0.5
G1 F1964
G1 X124.873 Y131.127 E.22594
G1 X124.873 Y124.873 E.22594
G1 X131.127 Y124.873 E.22594
M73 P6 R2
G1 X131.127 Y131.087 E.22449
G1 X131.584 Y131.584 F30000
;TYPE:Outer wall
G1 F1964
G1 X124.416 Y131.584 E.25897
G1 X124.416 Y124.416 E.25897
G1 X131.584 Y124.416 E.25897
G1 X131.584 Y131.544 E.25752
G1 E-.728 F1800
M73 P7 R2
;WIPE_START
G1 F30000
G1 X130.384 Y131.551 E-.072
;WIPE_END
G1 X130.898 Y126.03 Z.6
G1 Z.2
G1 E.8 F1800
;TYPE:Bottom surface
;WIDTH:0.501937
G1 F1964
G1 X130.176 Y125.307 E.03707
G1 X129.527 Y125.307 E.02355
G1 X130.693 Y126.473 E.05982
G1 X130.693 Y127.122 E.02355
G1 X128.878 Y125.307 E.09313
G1 X128.228 Y125.307 E.02355
G1 X130.693 Y127.772 E.12644
G1 X130.693 Y128.421 E.02355
G1 X127.579 Y125.307 E.15974
G1 X126.93 Y125.307 E.02355
G1 X130.693 Y129.07 E.19305
G1 X130.693 Y129.719 E.02355
M73 P8 R2
G1 X126.281 Y125.307 E.22636
G1 X125.632 Y125.307 E.02355
G1 X130.693 Y130.368 E.25967
G1 X130.693 Y130.693 E.01177
G1 X130.368 Y130.693 E.01178
G1 X125.307 Y125.632 E.25966
G1 X125.307 Y126.281 E.02355
G1 X129.719 Y130.693 E.22635
G1 X129.07 Y130.693 E.02355
G1 X125.307 Y126.93 E.19305
G1 X125.307 Y127.579 E.02355
M73 P9 R2
G1 X128.421 Y130.693 E.15974
G1 X127.771 Y130.693 E.02355
G1 X125.307 Y128.229 E.12643
G1 X125.307 Y128.878 E.02355
G1 X127.122 Y130.693 E.09312
G1 X126.473 Y130.693 E.02355
G1 X125.307 Y129.527 E.05981
G1 X125.307 Y130.176 E.02355
G1 X126.03 Y130.898 E.03706
;LAYER_CHANGE
;Z:0.48
;HEIGHT:0.28
;BEFORE_LAYER_CHANGE
;0.48
G92 E0

G1 E-.728 F1800
;WIPE_START
G1 F30000
G1 X125.307 Y130.176 E-.06129
G1 X125.307 Y129.997 E-.01071
;WIPE_END
EXCLUDE_OBJECT_END NAME=Cube_id_0_copy_0
;LAYER:2

;_SET_FAN_SPEED_CHANGING_LAYER
SET_VELOCITY_LIMIT ACCEL=10000
M104 S215 ; set nozzle temperature
; No need to reheat.
EXCLUDE_OBJECT_START NAME=Cube_id_0_copy_0
;G17
G3 Z.88 I-.266 J1.188
G1 X131.349 Y131.349 Z.88
G1 Z.48
G1 E.8 F1800
;TYPE:Inner wall
;WIDTH:0.45
G1 F2610
G1 X124.651 Y131.349 E.289
G1 X124.651 Y124.651 E.289
G1 X131.349 Y124.651 E.289
M73 P10 R2
G1 X131.349 Y131.309 E.28728
G1 X131.724 Y131.724 F30000
SET_VELOCITY_LIMIT ACCEL=5000
;TYPE:Outer wall
;WIDTH:0.42
G1 F2610
G1 X124.276 Y131.724 E.29663
G1 X124.276 Y124.276 E.29663
G1 X131.724 Y124.276 E.29663
G1 X131.724 Y131.684 E.29504
G1 E-.728 F1800
;WIPE_START
G1 F30000
G1 X130.524 Y131.69 E-.072
;WIPE_END
G1 X129.294 Y130.974 Z.88
G1 Z.48
G1 E.8 F1800
SET_VELOCITY_LIMIT ACCEL=10000
;TYPE:Internal solid infill
;WIDTH:0.42
G1 F2610
G1 X130.974 Y130.974 E.06691
G1 X130.974 Y129.294 E.06691
M73 P11 R2
G1 X129.322 Y130.946 E.09303
G1 X130.105 Y130.638 F30000
;WIDTH:0.3722
G1 F2610
G1 X130.638 Y130.638 E.0184
G1 X130.638 Y130.105 E.0184
G1 X130.134 Y130.61 E.02464
G1 X131.192 Y128.615 F30000
;WIDTH:0.423789
G1 F2610
G1 X128.777 Y131.03 E.13747
G1 X128.263 Y131.03 E.0207
G1 X131.03 Y128.263 E.15753
G1 X131.03 Y127.748 E.0207
G1 X127.748 Y131.03 E.18681
G1 X127.234 Y131.03 E.0207
G1 X131.03 Y127.234 E.21608
G1 X131.03 Y126.72 E.0207
G1 X126.72 Y131.03 E.24536
G1 X126.205 Y131.03 E.0207
G1 X131.03 Y126.205 E.27463
G1 X131.03 Y125.691 E.0207
G1 X125.691 Y131.03 E.30391
G1 X125.177 Y131.03 E.0207
G1 X131.03 Y125.177 E.33318
G1 X131.03 Y124.97 E.00833
G1 X130.723 Y124.97 E.01237
G1 X124.97 Y130.723 E.32746
M73 P12 R2
G1 X124.97 Y130.209 E.0207
G1 X130.209 Y124.97 E.29819
G1 X129.694 Y124.97 E.0207
G1 X124.97 Y129.694 E.26891
G1 X124.97 Y129.18 E.0207
G1 X129.18 Y124.97 E.23964
G1 X128.666 Y124.97 E.0207
G1 X124.97 Y128.666 E.21036
G1 X124.97 Y128.151 E.0207
G1 X128.151 Y124.97 E.18109
G1 X127.637 Y124.97 E.0207
G1 X124.97 Y127.637 E.15181
G1 X124.97 Y127.122 E.0207
G1 X127.122 Y124.97 E.12253
G1 X126.608 Y124.97 E.0207
G1 X124.97 Y126.608 E.09326
G1 X124.97 Y126.094 E.0207
G1 X126.094 Y124.97 E.06398
G1 X125.579 Y124.97 E.0207
G1 X124.808 Y125.741 E.04393
G1 X125.06 Y124.995 F30000
;WIDTH:0.441445
G1 F2610
G1 X124.989 Y125.037 E.00348
G1 X125.064 Y125.071 E.0035
;LAYER_CHANGE
;Z:0.76
;HEIGHT:0.28
;BEFORE_LAYER_CHANGE
;0.76
G92 E0

G1 E-.79007 F1800
;WIPE_START
G1 F30000
G1 X124.989 Y125.037 E-.00498
G1 X125.06 Y124.995 E-.00495
;WIPE_END
EXCLUDE_OBJECT_END NAME=Cube_id_0_copy_0
;LAYER:3

;_SET_FAN_SPEED_CHANGING_LAYER
EXCLUDE_OBJECT_START NAME=Cube_id_0_copy_0
;G17
G3 Z1.16 I-.865 J.856
G1 X131.349 Y131.349 Z1.16
M73 P13 R2
G1 Z.76
G1 E.8 F1800
;TYPE:Inner wall
;WIDTH:0.45
G1 F2620
G1 X124.651 Y131.349 E.289
G1 X124.651 Y124.651 E.289
G1 X131.349 Y124.651 E.289
G1 X131.349 Y131.309 E.28728
G1 X131.724 Y131.724 F30000
SET_VELOCITY_LIMIT ACCEL=5000
;TYPE:Outer wall
;WIDTH:0.42
G1 F2620
G1 X124.276 Y131.724 E.29663
G1 X124.276 Y124.276 E.29663
G1 X131.724 Y124.276 E.29663
G1 X131.724 Y131.684 E.29504
G1 E-.728 F1800
M73 P14 R2
;WIPE_START
G1 F30000
G1 X130.524 Y131.69 E-.072
;WIPE_END
G1 X131.192 Y127.385 Z1.16
G1 Z.76
G1 E.8 F1800
SET_VELOCITY_LIMIT ACCEL=10000
;TYPE:Internal solid infill
;WIDTH:0.423789
G1 F2620
M73 P14 R1
G1 X128.777 Y124.97 E.13747
G1 X128.263 Y124.97 E.0207
G1 X131.03 Y127.737 E.15753
G1 X131.03 Y128.252 E.0207
G1 X127.748 Y124.97 E.18681
G1 X127.234 Y124.97 E.0207
G1 X131.03 Y128.766 E.21608
G1 X131.03 Y129.28 E.0207
G1 X126.72 Y124.97 E.24536
G1 X126.205 Y124.97 E.0207
G1 X131.03 Y129.795 E.27463
G1 X131.03 Y130.309 E.0207
G1 X125.691 Y124.97 E.30391
G1 X125.177 Y124.97 E.0207
G1 X131.03 Y130.823 E.33318
G1 X131.03 Y131.03 E.00833
M73 P15 R1
G1 X130.723 Y131.03 E.01237
G1 X124.97 Y125.277 E.32746
G1 X124.97 Y125.791 E.0207
G1 X130.209 Y131.03 E.29819
G1 X129.694 Y131.03 E.0207
G1 X124.97 Y126.306 E.26891
G1 X124.97 Y126.82 E.0207
G1 X129.18 Y131.03 E.23964
G1 X128.666 Y131.03 E.0207
G1 X124.97 Y127.334 E.21036
G1 X124.97 Y127.849 E.0207
G1 X128.151 Y131.03 E.18109
G1 X127.637 Y131.03 E.0207
G1 X124.97 Y128.363 E.15181
G1 X124.97 Y128.878 E.0207
G1 X127.122 Y131.03 E.12253
G1 X126.608 Y131.03 E.0207
G1 X124.97 Y129.392 E.09326
G1 X124.97 Y129.906 E.0207
G1 X126.094 Y131.03 E.06398
G1 X125.579 Y131.03 E.0207
M73 P16 R1
G1 X124.808 Y130.259 E.04393
G1 X125.06 Y130.922 F30000
;WIDTH:0.441445
G1 F2620
G1 X124.989 Y130.963 E.00348
G1 X125.064 Y130.998 E.0035
G1 X129.294 Y125.026 F30000
;WIDTH:0.42
G1 F2620
G1 X130.974 Y126.706 E.09463
G1 X130.974 Y125.026 E.06691
G1 X129.334 Y125.026 E.06532
G1 X130.105 Y125.362 F30000
;WIDTH:0.3722
G1 F2620
G1 X130.638 Y125.895 E.02602
G1 X130.638 Y125.362 E.0184
G1 X130.145 Y125.362 E.01702
;LAYER_CHANGE
;Z:1.04
;HEIGHT:0.28
;BEFORE_LAYER_CHANGE
;1.04
G92 E0

G1 E-.728 F1800
;WIPE_START
G1 F30000
G1 X130.638 Y125.362 E-.02957
G1 X130.638 Y125.895 E-.03197
G1 X130.515 Y125.771 E-.01046
;WIPE_END
EXCLUDE_OBJECT_END NAME=Cube_id_0_copy_0
;LAYER:4

;_SET_FAN_SPEED_CHANGING_LAYER
EXCLUDE_OBJECT_START NAME=Cube_id_0_copy_0
;G17
G3 Z1.44 I-1.204 J.18
G1 X131.349 Y131.349 Z1.44
G1 Z1.04
G1 E.8 F1800
;TYPE:Inner wall
;WIDTH:0.45
G1 F1239
G1 X124.651 Y131.349 E.289
G1 X124.651 Y124.651 E.289
G1 X131.349 Y124.651 E.289
G1 X131.349 Y131.309 E.28728
M73 P17 R1
G1 X131.724 Y131.724 F30000
SET_VELOCITY_LIMIT ACCEL=5000
;TYPE:Outer wall
;WIDTH:0.42
G1 F1239
G1 X124.276 Y131.724 E.29663
G1 X124.276 Y124.276 E.29663
G1 X131.724 Y124.276 E.29663
G1 X131.724 Y131.684 E.29504
M73 P18 R1
G1 E-.728 F1800
;WIPE_START
G1 F30000
G1 X130.524 Y131.69 E-.072
;WIPE_END
G1 X128.485 Y131.191 Z1.44
G1 Z1.04
G1 E.8 F1800
SET_VELOCITY_LIMIT ACCEL=10000
;TYPE:Sparse infill
;WIDTH:0.45
G1 F1239
G1 X131.015 Y128.661 E.15438
G1 X131.015 Y124.985 E.15862
G1 X124.985 Y131.015 E.36799
G1 X124.985 Y127.339 E.15862
M73 P19 R1
G1 X127.515 Y124.809 E.15438
M106 S252
M106 P2 S12
;LAYER_CHANGE
;Z:1.32
;HEIGHT:0.28
;BEFORE_LAYER_CHANGE
;1.32
G92 E0

G1 E-.728 F1800
;WIPE_START
G1 F30000
G1 X126.666 Y125.658 E-.072
;WIPE_END
EXCLUDE_OBJECT_END NAME=Cube_id_0_copy_0
;LAYER:5

;_SET_FAN_SPEED_CHANGING_LAYER
EXCLUDE_OBJECT_START NAME=Cube_id_0_copy_0
;G17
G3 Z1.72 I-.94 J.773
G1 X131.349 Y131.349 Z1.72
G1 Z1.32
G1 E.8 F1800
;TYPE:Inner wall
G1 F1240
G1 X124.651 Y131.349 E.289
G1 X124.651 Y124.651 E.289
G1 X131.349 Y124.651 E.289
M73 P20 R1
G1 X131.349 Y131.309 E.28728
G1 X131.724 Y131.724 F30000
SET_VELOCITY_LIMIT ACCEL=5000
;TYPE:Outer wall
;WIDTH:0.42
G1 F1240
G1 X124.276 Y131.724 E.29663
G1 X124.276 Y124.276 E.29663
G1 X131.724 Y124.276 E.29663
M73 P21 R1
G1 X131.724 Y131.684 E.29504
G1 E-.728 F1800
;WIPE_START
G1 F30000
G1 X130.524 Y131.69 E-.072
;WIPE_END
G1 X131.191 Y127.515 Z1.72
G1 Z1.32
G1 E.8 F1800
SET_VELOCITY_LIMIT ACCEL=10000
;TYPE:Sparse infill
;WIDTH:0.45
G1 F1240
G1 X128.661 Y124.985 E.15438
G1 X124.985 Y124.985 E.15862
G1 X131.015 Y131.015 E.36799
G1 X127.339 Y131.015 E.15862
M73 P22 R1
G1 X124.809 Y128.485 E.15438
;LAYER_CHANGE
;Z:1.6
;HEIGHT:0.28
;BEFORE_LAYER_CHANGE
;1.6
G92 E0

G1 E-.728 F1800
;WIPE_START
G1 F30000
G1 X125.658 Y129.334 E-.072
;WIPE_END
EXCLUDE_OBJECT_END NAME=Cube_id_0_copy_0
;LAYER:6

;_SET_FAN_SPEED_CHANGING_LAYER
EXCLUDE_OBJECT_START NAME=Cube_id_0_copy_0
;G17
G3 Z2 I-.406 J1.147
G1 X131.349 Y131.349 Z2
G1 Z1.6
G1 E.8 F1800
;TYPE:Inner wall
G1 F1239
G1 X124.651 Y131.349 E.289
G1 X124.651 Y124.651 E.289
G1 X131.349 Y124.651 E.289
M73 P23 R1
G1 X131.349 Y131.309 E.28728
G1 X131.724 Y131.724 F30000
SET_VELOCITY_LIMIT ACCEL=5000
;TYPE:Outer wall
;WIDTH:0.42
G1 F1239
G1 X124.276 Y131.724 E.29663
G1 X124.276 Y124.276 E.29663
G1 X131.724 Y124.276 E.29663
M73 P24 R1
G1 X131.724 Y131.684 E.29504
G1 E-.728 F1800
;WIPE_START
G1 F30000
G1 X130.524 Y131.69 E-.072
;WIPE_END
G1 X128.485 Y131.191 Z2
G1 Z1.6
G1 E.8 F1800
SET_VELOCITY_LIMIT ACCEL=10000
;TYPE:Sparse infill
;WIDTH:0.45
G1 F1239
G1 X131.015 Y128.661 E.15438
G1 X131.015 Y124.985 E.15862
G1 X124.985 Y131.015 E.36799
M73 P25 R1
G1 X124.985 Y127.339 E.15862
G1 X127.515 Y124.809 E.15438
;LAYER_CHANGE
;Z:1.88
;HEIGHT:0.28
;BEFORE_LAYER_CHANGE
;1.88
G92 E0

G1 E-.728 F1800
;WIPE_START
G1 F30000
G1 X126.666 Y125.658 E-.072
;WIPE_END
EXCLUDE_OBJECT_END NAME=Cube_id_0_copy_0
;LAYER:7

;_SET_FAN_SPEED_CHANGING_LAYER
EXCLUDE_OBJECT_START NAME=Cube_id_0_copy_0
;G17
G3 Z2.28 I-.94 J.773
G1 X131.349 Y131.349 Z2.28
G1 Z1.88
G1 E.8 F1800
;TYPE:Inner wall
G1 F1240
G1 X124.651 Y131.349 E.289
G1 X124.651 Y124.651 E.289
G1 X131.349 Y124.651 E.289
M73 P26 R1
G1 X131.349 Y131.309 E.28728
G1 X131.724 Y131.724 F30000
SET_VELOCITY_LIMIT ACCEL=5000
;TYPE:Outer wall
;WIDTH:0.42
G1 F1240
G1 X124.276 Y131.724 E.29663
G1 X124.276 Y124.276 E.29663
G1 X131.724 Y124.276 E.29663
M73 P27 R1
G1 X131.724 Y131.684 E.29504
G1 E-.728 F1800
;WIPE_START
G1 F30000
G1 X130.524 Y131.69 E-.072
;WIPE_END
G1 X131.191 Y127.515 Z2.28
G1 Z1.88
G1 E.8 F1800
SET_VELOCITY_LIMIT ACCEL=10000
;TYPE:Sparse infill
;WIDTH:0.45
G1 F1240
G1 X128.661 Y124.985 E.15438
G1 X124.985 Y124.985 E.15862
M73 P28 R1
G1 X131.015 Y131.015 E.36799
G1 X127.339 Y131.015 E.15862
G1 X124.809 Y128.485 E.15438
;LAYER_CHANGE
;Z:2.16
;HEIGHT:0.28
;BEFORE_LAYER_CHANGE
;2.16
G92 E0

G1 E-.728 F1800
;WIPE_START
G1 F30000
G1 X125.658 Y129.334 E-.072
;WIPE_END
EXCLUDE_OBJECT_END NAME=Cube_id_0_copy_0
;LAYER:8

;_SET_FAN_SPEED_CHANGING_LAYER
EXCLUDE_OBJECT_START NAME=Cube_id_0_copy_0
;G17
G3 Z2.56 I-.406 J1.147
G1 X131.349 Y131.349 Z2.56
G1 Z2.16
G1 E.8 F1800
;TYPE:Inner wall
G1 F1239
G1 X124.651 Y131.349 E.289
G1 X124.651 Y124.651 E.289
M73 P29 R1
G1 X131.349 Y124.651 E.289
G1 X131.349 Y131.309 E.28728
G1 X131.724 Y131.724 F30000
SET_VELOCITY_LIMIT ACCEL=5000
;TYPE:Outer wall
;WIDTH:0.42
G1 F1239
G1 X124.276 Y131.724 E.29663
G1 X124.276 Y124.276 E.29663
M73 P30 R1
G1 X131.724 Y124.276 E.29663
G1 X131.724 Y131.684 E.29504
G1 E-.728 F1800
;WIPE_START
G1 F30000
G1 X130.524 Y131.69 E-.072
;WIPE_END
G1 X128.485 Y131.191 Z2.56
G1 Z2.16
G1 E.8 F1800
SET_VELOCITY_LIMIT ACCEL=10000
;TYPE:Sparse infill
;WIDTH:0.45
G1 F1239
G1 X131.015 Y128.661 E.15438
G1 X131.015 Y124.985 E.15862
M73 P31 R1
G1 X124.985 Y131.015 E.36799
G1 X124.985 Y127.339 E.15862
G1 X127.515 Y124.809 E.15438
;LAYER_CHANGE
;Z:2.44
;HEIGHT:0.28
;BEFORE_LAYER_CHANGE
;2.44
G92 E0

G1 E-.728 F1800
;WIPE_START
G1 F30000
G1 X126.666 Y125.658 E-.072
;WIPE_END
EXCLUDE_OBJECT_END NAME=Cube_id_0_copy_0
;LAYER:9

;_SET_FAN_SPEED_CHANGING_LAYER
EXCLUDE_OBJECT_START NAME=Cube_id_0_copy_0
;G17
G3 Z2.84 I-.94 J.773
G1 X131.349 Y131.349 Z2.84
G1 Z2.44
G1 E.8 F1800
;TYPE:Inner wall
G1 F1240
G1 X124.651 Y131.349 E.289
G1 X124.651 Y124.651 E.289
M73 P32 R1
G1 X131.349 Y124.651 E.289
G1 X131.349 Y131.309 E.28728
G1 X131.724 Y131.724 F30000
SET_VELOCITY_LIMIT ACCEL=5000
;TYPE:Outer wall
;WIDTH:0.42
G1 F1240
G1 X124.276 Y131.724 E.29663
G1 X124.276 Y124.276 E.29663
M73 P33 R1
G1 X131.724 Y124.276 E.29663
G1 X131.724 Y131.684 E.29504
G1 E-.728 F1800
;WIPE_START
G1 F30000
G1 X130.524 Y131.69 E-.072
;WIPE_END
G1 X131.191 Y127.515 Z2.84
M73 P34 R1
G1 Z2.44
G1 E.8 F1800
SET_VELOCITY_LIMIT ACCEL=10000
;TYPE:Sparse infill
;WIDTH:0.45
G1 F1240
G1 X128.661 Y124.985 E.15438
G1 X124.985 Y124.985 E.15862
G1 X131.015 Y131.015 E.36799
G1 X127.339 Y131.015 E.15862
G1 X124.809 Y128.485 E.15438
;LAYER_CHANGE
;Z:2.72
;HEIGHT:0.28
;BEFORE_LAYER_CHANGE
;2.72
G92 E0

G1 E-.728 F1800
;WIPE_START
G1 F30000
G1 X125.658 Y129.334 E-.072
;WIPE_END
EXCLUDE_OBJECT_END NAME=Cube_id_0_copy_0
;LAYER:10

;_SET_FAN_SPEED_CHANGING_LAYER
EXCLUDE_OBJECT_START NAME=Cube_id_0_copy_0
;G17
G3 Z3.12 I-.406 J1.147
G1 X131.349 Y131.349 Z3.12
G1 Z2.72
M73 P35 R1
G1 E.8 F1800
;TYPE:Inner wall
G1 F1239
G1 X124.651 Y131.349 E.289
G1 X124.651 Y124.651 E.289
G1 X131.349 Y124.651 E.289
G1 X131.349 Y131.309 E.28728
G1 X131.724 Y131.724 F30000
M73 P36 R1
SET_VELOCITY_LIMIT ACCEL=5000
;TYPE:Outer wall
;WIDTH:0.42
G1 F1239
G1 X124.276 Y131.724 E.29663
G1 X124.276 Y124.276 E.29663
G1 X131.724 Y124.276 E.29663
G1 X131.724 Y131.684 E.29504
G1 E-.728 F1800
M73 P37 R1
;WIPE_START
G1 F30000
G1 X130.524 Y131.69 E-.072
;WIPE_END
G1 X128.485 Y131.191 Z3.12
G1 Z2.72
G1 E.8 F1800
SET_VELOCITY_LIMIT ACCEL=10000
;TYPE:Sparse infill
;WIDTH:0.45
G1 F1239
G1 X131.015 Y128.661 E.15438
G1 X131.015 Y124.985 E.15862
G1 X124.985 Y131.015 E.36799
